X:1
T:Seria's Gate - Great Metastasis
T:Seria's Gate - Great Metastasis 
T:Where I Returned For Her
%%score { 1 | 2 }
L:1/8
Q:1/4=132
M:4/4
K:D
V:1 treble nm="Piano" snm="Pno."
V:2 bass 
V:1
 [DGAd]2 c[EAd] z e2 A | !arpeggio![ef]ga [Fd]3 A2 | [DGAd]2 c[Ed] z e2 [Ff]- | %3
 [Ff]2 [DF][DA]<E [DF]2 D | [Gd]2 [Dc] [EAd]2 e2 F | !arpeggio![ef]ga [Fd]3 A2 | %6
 [DGAd]2 c [EAd]2 e2 [Fd]- | [Fd]A,D [EA]2 FDA, |{/C} [G,D]2 .C[A,D] z [A,E]3 | %9
 [A,CDF]GA [A,D]2 [Fd]2 A | !arpeggio![CD]2 CD z [A,E]2{/E} [A,CF]- | [A,CF]AB e'2 add' | %12
{/C} [G,D]2 C.[A,D] z E A,2 | [A,DF]GA [Ge]2 [Af]2 A | [G,D]2 C[A,D] z [A,CE]2 [A,D]- | %15
 [A,D]2 B e2 f[Aa][ee']- | [ee'] [ff']2 z4 [ff'] | [gg']2 [ff'] [gg']2 [bb']2 [ee'] | %18
 [Bf]3 e z2 [Bb][dd'] | [ee']B[dd'] [ee']2 [bb']2 [ff'] | [EF]3 [DE] z3 [ee'] | %21
 [ff']2 [ee'] [ff']2 [d'd'']2 [ff'] | [EFB]2 E/F/B ^G [GB]2 a | [^g^g']3 [ff']2 [ee']2 [ded'] | %24
 [DEGBd]4- [DEGBd]f'/g'/ f'd'- | d'fg d'2 e'2 ^d'/=d'/ | c'3/2d'3/2 f2 [ce]BA | %27
 FCEA (3Bce f/a/b/e'/ | [DFc]2 d B2 efb- | bef [Bb]2 [cc']2 b/^a/ | a'2 A/B/A/ z3/2 f'/e'/ a'd' | %31
 c'd' c'/b/a/g/ (3fed c/B/A/G/ | [B,DGB] D2 [G,B,DF]/ z3/2 F/G/ dF/G/ | dF/G/ d3 A3 | %34
 [EAc]d/e/ fe/d/ c A2 [EF] | DB,>EF/A/ Bc/fa/b/d'/ | [gbe']2 [gbf']2 [gbe']2 [Beb]2 | %37
 [Beb] [Aea]2 F [Beb]2 [dae']2 | [DEAd]3 [DEAd] z2 [CEAc]2- | [CEAc]8 | %40
{/c} [DGd]2 [Cc]/ z/ [DGd]2 [Ee]2 A |{/e} [Ff][Gg][Aa] [Dd]3 AG | %42
{/C} [DGB]2 C/ z/ [DGB]2 [Ee]2{/e} [FAf]- | [FAf]A[DB][EF] AFA,D | %44
{/C} [G,D]2 [B,C]/ z/ [DA]2 [EAe]3 | [Ff][Gg][Aa] [Dd]2 A,[A,A][G,G] | %46
 [G,B,D]2 C[G,D]/ z3/2 EA,D- | DA,D{/E}F- FE DE/D/ | B,{/A}B z !arpeggio![DE]2 A,B,D | %49
 [A,D]ECE D/C/[B,E]/ z/ A,[G,D] | F,2 A,/ z/ [A,D] z G, z F,- | F, z2 E2 F2 [FA]/E/ | %52
 !arpeggio![A,B,D]2 F,/ z/ A,2 [F,A,]/ z/ [A,B,]D | [A,D]2 F2 EEB,D | %54
 [E,G,B,D]2 C/ z/ [A,D]2 [G,E]2 F, | F, A,2 A/B/ e2{/^G} [Ad]{/G}[Ad] | %56
 !arpeggio![B,DE]2 [B,DE]/ z3/2 B, [EFAB]2 [DA] | z [EA] D[Ad]/ z/ D2 ED | %58
{/F} [B,G]2 [B,F]/ z/ [A,DG] z [DA]G{/E}[A,DF]- | [A,DF]F G/D/[B,E] D[FA] E[DA]/E/ | %60
 [B,DF]2 A/ z/{/E} [DF] AA!arpeggio![EF][DA] | A!arpeggio![EF]A!arpeggio![B=c] A[Ec]GD | %62
 [G,A]=F^F!arpeggio![B,DAB] de!arpeggio![ef]!arpeggio![ef] | d2 B/A/G/A/ [=Fe]/^F/ [F,D]3- | %64
 [F,D]8 |] %65
V:2
 [B,,A,]3 [C,B,] z DA,E, | [D,,D,]3 A,, F, [E,A,]2 G, | B,,3 [C,A,] z A,, A,2 | D,, D,4 D, A,2 | %4
 B,, G,2 C,2 DA,E, | [D,,D,]3 A,2 A,2 G, | B,, A,2 [C,A,]2 E,A,D, | D,,4 D, A,,3 | %8
 B,,2 z C, z2 D,E, | D,,4- D,,E, A,2 | [B,,G,]3 .[C,A,] z A,,A,,[D,,D,]- | [D,,D,]3 [EF] A D3 | %12
 B,,3 .C, z A,,2 E, | [D,,D,]3 [A,D]2 E,2 D, | B,,3 [C,E,] z E,2 D, | D,,3 D,/E,/ D,[F,A,] A,,2 | %16
 !arpeggio![G,B,DF]3 [G,B,DF]/ z3/2 G, [A,B,DF]2- | [A,B,DF]3 G, [A,D]2 A,D, | %18
 [E,^G,B,E]3 [G,B,E] z E, [G,B,E]2 | [G,B,E]3 F, B,E F2 | [A,,A,]3 [A,,A,]/ z3/2 F, [F,A,D]2- | %21
 [F,A,D] E2 F AD,DE, | [G,,B,]4- [G,,B,]B, E,2- | E,eBA ^GA[A,B]F, | [E,,E,]3 B,,3 [E,,E,]D | %25
 [EF]AE [DA]2 [E,E]D,E, | [F,,F,]2 [DF] C,3 F,2 | B,8 | [G,,G,]3 D,2 G, G,,2 | ABA F2 B2 G, | %30
 [F,,F,]3 [E,A,]/ z/ E/F/E F,2- | F, [A,CE]3 F,,[C,E,] F,,2 | [E,,E,]3 z3 E,,2- | %33
 E,,A,B, D2 E,2 D, | F,3 C, z2 F,,2- | F,,8 | [G,B,DF]3 D, z2 [DE]E | DA,B,A, D,E,G,,D, | %38
 [A,,A,]3 [A,,A,]/ z3/2 E,, [A,,,A,,]2- | [A,,,A,,]8 | [G,,G,]2 z G,,2 D,G,A, | %41
 [F,D]3 A,,2 A,2 G, | [E,B,]2 E,/ z/ [G,B,]3 A,D,, | [D,A,]2 G, A,2 D,3 | G,,D, z G,2 D,A,[G,D] | %45
 [F,D]3 [A,,A,]2 D,3 | [E,,E,] B,,2 G,,/ z3/2 E,2 D,, | D,3 E,2 F, A,2 | [G,,D,] z2 G,,2 D,2 E,, | %49
 F,,3 A,,2 D,/ z/ z2 | [E,,E,]2 E,,/ z/ [G,,D,] z [G,,D,] z [D,,D,]- | [D,,D,]D,E,G, F,A,[G,B,]F, | %52
 G,,2 z G,,2 D,,/ z3/2 E,, | [F,,D,]3 A,,2 D,3 | D,,2 z F,,2 C,A,,[D,,D,]- | %55
 [D,,D,]D,F, E,2 [F,D] z2 | [G,,D,]2 z G,, z [D,A,]B,E, | [F,,F,]3 A,,/ z3/2 D,3 | %58
 E,2 E,,/ z/ F,, z G,,2 D,,- | D,,3{/D,} [E,G,]2 [D,A,]3 | [G,,,G,,]2 z G,,2 [D,A,]B,E, | %61
 F,,3 [A,,A,] B,D, B,2 | [E,,E,] [E,,E,]2 [F,,F,]2 E,D,[D,F,A,]- | %63
 [D,F,A,][A,D] A,,D,<D, [D,,D,]3- | [D,,D,]8 |] %65

